X: 68
T:the Marchioness of Huntly's Jig
B:William Marshall's Scottish Airs, Melodies, Strathspeys, Reels &c (1822)
C:William Marshall
L:1/8
M:6/8
O:Scotland
R:Jig
Z:Clark Bernst + Richard Robinson
%%Page:1 - 2
F:http://richardrobinson.tunebook.org.uk/tune/3911
%%TBL:{"version":1,"type":"tune","id":"3911"}
K:Bb
%%staves { 1 2 }
V: 1
"^Slowly"
f | \
(df)d !trill! B3 | (FB)F {E}!trill! D3 | B,2 B fdB | Acc !=!~cde | 
(df)d !trill! B3 | (FB)F {E}D3 | E2 g fbf | dBB ~B2  :|
d/e/ | \
fed bfd | fed bfd | fga bfd | Acc ~c2 d/e/ | \
fed bfd | fed cBA | GAB cde | dBB ~B2 d/e/ |
fed bfd | fed bfd | fga bfd | Acc !=!~c2 d/e/ | \
{g}fed edc | !trill! B>AG FED | ~E2 g fbf | dBB ~B2 |]
V: 2 clef=bass
z | \
B3 B3 | B3 B3 | B3 B3 | [Ff]3 [Ff]3 | \
B3 B3 | B3 B3 | e3 f3 | B3 B2 :| \
z | \
b3 b3 | b3 b3 | b3 d2b | f3 f3 | \
b3 B3 | B3 f3 | e3 f3 | B3 B2 z | \
b3 b3 | b3 b3 | b3 d2b | f3 f3 | \
b3 f3 | g2e d2B | e3 f3 | B3 B2 |]

